X:7
T:Waterfall, The
R:reel
C:Henrik Norbeck
H:January 1990 (first part), November 1990 (second part)
M:C|
K:Ador
~a3g edcA|G2EG DGBG|EAAG ABcd|ea~a2 gaeg|
~a3g edcA|G2EG DGBG|EAAB cage|dBGB ~A3z:|
|:a2ea gaeg|a2bg agef|g2dg egde|g2bg ageg|
a2ea gaeg|a2bg agef|~g3e dBGB|AcBG ~A3z:|

